packages/calcite-ui-icons/icons/add-link-chart-root-nodes-16.svg

<?xml version="1.0" encoding="UTF-8"?><svg id="icons" xmlns="http://www.w3.org/2000/svg" viewBox="0 0 16 16"><defs><style>.cls-1{fill:none;}</style></defs><rect class="cls-1" width="16" height="16"/><path d="M4,12h3v1h-3v3h-1v-3H0v-1h3v-3h1v3ZM16,6.5l-6.5,6.5L3,6.5,9.5,0l6.5,6.5ZM9.5,12l5.5-5.5L9.5,1l-5.5,5.5,5.5,5.5ZM9.5,5l-1.5,1.5,1.5,1.5,1.5-1.5-1.5-1.5Z"/></svg>

<svg xmlns="http://www.w3.org/2000/svg" viewBox="0 0 16 16"><path fill="none" d="M0 0h16v16H0z"/><path d="M4 12h3v1H4v3H3v-3H0v-1h3V9h1v3zm12-5.5L9.5 13 3 6.5 9.5 0 16 6.5zM9.5 12L15 6.5 9.5 1 4 6.5 9.5 12zm0-7L8 6.5 9.5 8 11 6.5 9.5 5z"/></svg>
